X:2003 
T:Barbara Allen 
N:See also KV9, 26, 127 and 361. Key signature is confusing in ms, 2# or 2b.
C:Traditional
O:Isle of Man
S:Henry Clague, Ballanorris 
Z:Clague collection
B:Kiaull Vannin #3
M:6/4 
Q:175 
L:1/4
K:G 
D GG|G3 D GG|G3 BcB|A3 DF(A|A3) ded|(G2B) dcc|D3 BcB|(G2F) AA(G|G3)||
